digital/Imbassy-X-Files/65ef0811cc67439994568a45/65ef0811cc67439994568f60_facebook.svg

<svg fill="none" height="56" viewBox="0 0 107 56" width="107" xmlns="http://www.w3.org/2000/svg"><path d="m105.703 46.6896c0 1.1363-.927 2.0629-2.063 2.0629h-100.78189c-1.1365 0-2.063188-.9266-2.063188-2.0629v-38.98604c0-1.13636.926688-2.06294 2.063188-2.06294h100.78189c1.136 0 2.063.92658 2.063 2.06294z" fill="#fff"/><g fill="#0e031e"><path d="m48.0371 15.8496h1.189v9.3007h-1.1015v-7.1329l-2.0457 4.6854h-1.1016l-2.0457-4.6854v7.1329h-1.1015v-9.3007h1.1715l2.5177 5.7168z"/><path d="m56.2733 25.1507h-.9967l-.0699-.5769c-.3847.3147-1.3463.7168-2.2031.7168-1.4862 0-2.0632-.8741-2.0632-2.1678 0-1.3637.6819-2.0805 2.1506-2.0805.8743 0 1.6436.2273 2.0108.3847v-1.0665c0-.8916-.2798-1.2762-1.3114-1.2762-.6119 0-1.2239.0874-1.8533.2622l-.1749-.9615c.5945-.1923 1.4338-.3147 2.1506-.3147 1.6086 0 2.3605.6993 2.3605 2.2203zm-1.1715-2.9196c-.3847-.1223-1.154-.2972-1.8534-.2972-.9442 0-1.1715.4546-1.1715 1.2238 0 .8567.2798 1.2588 1.0841 1.2588.8392 0 1.5386-.3147 1.9233-.5944v-1.591z"/><path d="m61.571 19.207c-.7868.1573-1.5736.4195-2.1681.7342v5.2273h-1.1715v-6.9406h.9617l.1224.8042c.4196-.4195 1.1889-.8216 2.0982-.9091z"/><path d="m62.7949 25.1512v-9.8602h1.1715v6.1364l2.4129-3.1993h1.3813l-2.6577 3.4266 2.7626 3.4965h-1.3813l-2.5178-3.2868v3.2868z"/><path d="m69.7359 22.2138c.07 1.4685.4371 2.1678 1.8534 2.1678.7344 0 1.5037-.1748 2.0457-.3846l.1749.8916c-.577.2447-1.4862.4196-2.2381.4196-2.5003 0-3.0073-1.7133-3.0073-3.6539 0-1.993.6644-3.5664 2.78-3.5664 1.8884 0 2.6752 1.3287 2.6752 2.9895v1.1364zm0-.9266h3.1473v-.2448c0-1.2937-.4022-2.0629-1.5562-2.0629-1.2938-.0175-1.5736.9266-1.5911 2.3077z"/><path d="m79.2483 25.0812c-.2972.1049-.9791.2098-1.4337.2098-1.189 0-1.696-.6643-1.696-1.7308v-4.3881h-1.2065v-.944h1.2065v-1.6959l1.1714-.1748v1.8532h1.9758l-.1049.944h-1.8709v4.3357c0 .6468.1574.8392.8043.8392.2798 0 .6819-.0525 1.0491-.1399z"/><path d="m81.2585 15.4121c.4546 0 .7868.3322.7868.7867 0 .4546-.3147.7867-.7868.7867-.4546 0-.7868-.3321-.7868-.7867.0175-.4545.3322-.7867.7868-.7867zm-.577 2.8147h1.1715v6.9406h-1.1715z"/><path d="m88.0427 25.1507v-5.0524c0-.6294-.2623-.9441-.9442-.9441-.7344 0-1.4512.2448-1.9583.4546v5.5419h-1.1714v-6.9405h.9441l.1049.6119c.5595-.3847 1.4338-.7518 2.3779-.7518 1.189 0 1.8359.6643 1.8359 1.9056v5.1748z"/><path d="m94.442 18.2278h2.2031v.8042l-.9267.1748c.1749.3147.2623.7342.2623 1.1713 0 1.4336-.9966 2.2902-2.5877 2.2902-.2623 0-.5246-.0175-.7344-.0699-.1574.1398-.3147.3321-.3147.6468 0 .3322.1748.4895.6294.4895h1.5737c1.2239 0 1.9757.7693 1.9757 1.8532 0 1.486-1.3113 2.2203-3.1822 2.2203-1.8184 0-2.7975-.5595-2.7975-1.8707 0-.8391.5595-1.2237 1.1015-1.486-.2972-.2098-.4546-.5244-.4546-.9265 0-.6294.4371-.9441.8043-1.1539-.7518-.3671-1.189-1.0664-1.189-1.993 0-1.486.8568-2.2902 2.5703-2.2902.4021 0 .7518.0524 1.0665.1399zm-2.203 6.4685c-.3147.2622-.5945.5944-.5945 1.1538 0 .8042.6819 1.1014 1.731 1.1014 1.2239 0 1.9758-.3147 1.9758-1.2412 0-.5245-.2973-.9616-1.0491-.9616h-1.5037c-.2098 0-.4721-.0174-.5595-.0524zm1.154-5.7692c-.9967 0-1.4687.4021-1.4687 1.451 0 1.049.542 1.4511 1.4687 1.4511s1.4862-.4546 1.4862-1.4511c0-1.014-.5246-1.451-1.4862-1.451z"/><path d="m43.0365 35.675v3.4615h-1.2064v-9.3181h2.78c2.1507 0 2.9375 1.2237 2.9375 2.9195s-.7868 2.9196-2.9375 2.9196h-1.5736zm0-.979h1.5387c1.3987 0 1.7834-.8042 1.7834-1.9406 0-1.1538-.3847-1.9405-1.7834-1.9405h-1.5387z"/><path d="m53.4754 39.1371h-.9966l-.07-.577c-.3846.3147-1.3463.7168-2.203.7168-1.4862 0-2.0632-.8741-2.0632-2.1678 0-1.3636.6819-2.0804 2.1506-2.0804.8567 0 1.6435.2272 2.0107.3846v-1.0665c0-.8916-.2797-1.2762-1.3113-1.2762-.612 0-1.2239.0874-1.8534.2623l-.1748-.9616c.5944-.1923 1.4337-.3147 2.1506-.3147 1.6086 0 2.3604.6993 2.3604 2.2203zm-1.1715-2.9196c-.3846-.1224-1.154-.2972-1.8533-.2972-.9442 0-1.1715.4545-1.1715 1.2237 0 .8567.2797 1.2588 1.084 1.2588.8393 0 1.5387-.3147 1.9233-.5944v-1.5909z"/><path d="m58.7732 33.1913c-.7868.1574-1.5737.4196-2.1681.7343v5.2273h-1.1715v-6.9406h.9617l.1223.8042c.4197-.4196 1.189-.8217 2.0982-.9091z"/><path d="m63.5648 39.0656c-.2972.1049-.9791.2098-1.4337.2098-1.189 0-1.6961-.6644-1.6961-1.7308v-4.3881h-1.1889v-.9441h1.2064v-1.6958l1.1715-.1748v1.8531h1.9758l-.1049.9441h-1.8709v4.3357c0 .6468.1574.8391.8043.8391.2798 0 .6819-.0524 1.0491-.1398z"/><path d="m69.0895 39.1371v-5.0525c0-.6294-.2622-.944-.9441-.944-.7344 0-1.4512.2447-1.9583.4545v5.542h-1.1715v-6.9406h.9442l.1049.6119c.5595-.3846 1.4337-.7518 2.3779-.7518 1.189 0 1.8359.6644 1.8359 1.9056v5.1749z"/><path d="m73.0055 36.2001c.0699 1.4685.4371 2.1678 1.8533 2.1678.7344 0 1.5037-.1748 2.0457-.3846l.1749.8916c-.577.2448-1.4862.4196-2.2381.4196-2.5003 0-3.0073-1.7133-3.0073-3.6538 0-1.9931.6644-3.5665 2.78-3.5665 1.8884 0 2.6752 1.3287 2.6752 2.9895v1.1364zm0-.9266h3.1472v-.2447c0-1.2937-.4022-2.063-1.5561-2.063-1.3114-.0175-1.5911.9266-1.5911 2.3077z"/><path d="m82.2732 33.1913c-.7868.1574-1.5737.4196-2.1681.7343v5.2273h-1.1715v-6.9406h.9617l.1223.8042c.4197-.4196 1.189-.8217 2.0982-.9091z"/><path d="m33.7709 14.3809h-22.8175c-.7868 0-1.41629.6293-1.41629 1.416v22.8147c0 .7867.62949 1.4161 1.41629 1.4161h12.2742v-9.9301h-3.3396v-3.8636h3.3396v-2.8496c0-3.3042 2.0282-5.1224 4.9831-5.1224 1.4163 0 2.6402.1049 2.9899.1573v3.4616h-2.0457c-1.6086 0-1.9233.7692-1.9233 1.8881v2.465h3.8291l-.507 3.8636h-3.3396v9.9301h6.5393c.7868 0 1.4162-.6294 1.4162-1.4161v-22.8147c0-.7867-.6294-1.416-1.3987-1.416z"/></g></svg>

<svg width="107" height="56" viewBox="0 0 107 56" fill="none" xmlns="http://www.w3.org/2000/svg">
<path d="M105.703 46.6896C105.703 47.8259 104.776 48.7525 103.64 48.7525H2.85811C1.72161 48.7525 0.794922 47.8259 0.794922 46.6896V7.70356C0.794922 6.5672 1.72161 5.64062 2.85811 5.64062H103.64C104.776 5.64062 105.703 6.5672 105.703 7.70356V46.6896Z" fill="white"/>
<path d="M48.0371 15.8496H49.2261V25.1503H48.1246V18.0174L46.0789 22.7028H44.9773L42.9316 18.0174V25.1503H41.8301V15.8496H43.0016L45.5193 21.5664L48.0371 15.8496Z" fill="#0E031E"/>
<path d="M56.2733 25.1507H55.2766L55.2067 24.5738C54.822 24.8885 53.8604 25.2906 53.0036 25.2906C51.5174 25.2906 50.9404 24.4165 50.9404 23.1228C50.9404 21.7591 51.6223 21.0423 53.091 21.0423C53.9653 21.0423 54.7346 21.2696 55.1018 21.427V20.3605C55.1018 19.4689 54.822 19.0843 53.7904 19.0843C53.1785 19.0843 52.5665 19.1717 51.9371 19.3465L51.7622 18.385C52.3567 18.1927 53.196 18.0703 53.9128 18.0703C55.5214 18.0703 56.2733 18.7696 56.2733 20.2906V25.1507ZM55.1018 22.2311C54.7171 22.1088 53.9478 21.9339 53.2484 21.9339C52.3042 21.9339 52.0769 22.3885 52.0769 23.1577C52.0769 24.0144 52.3567 24.4165 53.161 24.4165C54.0002 24.4165 54.6996 24.1018 55.0843 23.8221V22.2311H55.1018Z" fill="#0E031E"/>
<path d="M61.571 19.207C60.7842 19.3643 59.9974 19.6265 59.4029 19.9412V25.1685H58.2314V18.2279H59.1931L59.3155 19.0321C59.7351 18.6126 60.5044 18.2105 61.4137 18.123L61.571 19.207Z" fill="#0E031E"/>
<path d="M62.7949 25.1512V15.291H63.9664V21.4274L66.3793 18.2281H67.7606L65.1029 21.6547L67.8655 25.1512H66.4842L63.9664 21.8644V25.1512H62.7949Z" fill="#0E031E"/>
<path d="M69.7359 22.2138C69.8059 23.6823 70.173 24.3816 71.5893 24.3816C72.3237 24.3816 73.093 24.2068 73.635 23.997L73.8099 24.8886C73.2329 25.1333 72.3237 25.3082 71.5718 25.3082C69.0715 25.3082 68.5645 23.5949 68.5645 21.6543C68.5645 19.6613 69.2289 18.0879 71.3445 18.0879C73.2329 18.0879 74.0197 19.4166 74.0197 21.0774V22.2138H69.7359ZM69.7359 21.2872H72.8832V21.0424C72.8832 19.7487 72.481 18.9795 71.327 18.9795C70.0332 18.962 69.7534 19.9061 69.7359 21.2872Z" fill="#0E031E"/>
<path d="M79.2483 25.0812C78.9511 25.1861 78.2692 25.291 77.8146 25.291C76.6256 25.291 76.1186 24.6267 76.1186 23.5602V19.1721H74.9121V18.2281H76.1186V16.5322L77.29 16.3574V18.2106H79.2658L79.1609 19.1546H77.29V23.4903C77.29 24.1371 77.4474 24.3295 78.0943 24.3295C78.3741 24.3295 78.7762 24.277 79.1434 24.1896L79.2483 25.0812Z" fill="#0E031E"/>
<path d="M81.2585 15.4121C81.7131 15.4121 82.0453 15.7443 82.0453 16.1988C82.0453 16.6534 81.7306 16.9855 81.2585 16.9855C80.8039 16.9855 80.4717 16.6534 80.4717 16.1988C80.4892 15.7443 80.8039 15.4121 81.2585 15.4121ZM80.6815 18.2268H81.853V25.1674H80.6815V18.2268Z" fill="#0E031E"/>
<path d="M88.0427 25.1507V20.0983C88.0427 19.4689 87.7804 19.1542 87.0985 19.1542C86.3641 19.1542 85.6473 19.399 85.1402 19.6088V25.1507H83.9688V18.2102H84.9129L85.0178 18.8221C85.5773 18.4374 86.4516 18.0703 87.3957 18.0703C88.5847 18.0703 89.2316 18.7346 89.2316 19.9759V25.1507H88.0427Z" fill="#0E031E"/>
<path d="M94.442 18.2278H96.6451V19.032L95.7184 19.2068C95.8933 19.5215 95.9807 19.941 95.9807 20.3781C95.9807 21.8117 94.9841 22.6683 93.393 22.6683C93.1307 22.6683 92.8684 22.6508 92.6586 22.5984C92.5012 22.7382 92.3439 22.9305 92.3439 23.2452C92.3439 23.5774 92.5187 23.7347 92.9733 23.7347H94.547C95.7709 23.7347 96.5227 24.504 96.5227 25.5879C96.5227 27.0739 95.2114 27.8082 93.3405 27.8082C91.5221 27.8082 90.543 27.2487 90.543 25.9375C90.543 25.0984 91.1025 24.7138 91.6445 24.4515C91.3473 24.2417 91.1899 23.9271 91.1899 23.525C91.1899 22.8956 91.627 22.5809 91.9942 22.3711C91.2424 22.004 90.8052 21.3047 90.8052 20.3781C90.8052 18.8921 91.662 18.0879 93.3755 18.0879C93.7776 18.0879 94.1273 18.1403 94.442 18.2278ZM92.239 24.6963C91.9243 24.9585 91.6445 25.2907 91.6445 25.8501C91.6445 26.6543 92.3264 26.9515 93.3755 26.9515C94.5994 26.9515 95.3513 26.6368 95.3513 25.7103C95.3513 25.1858 95.054 24.7487 94.3022 24.7487H92.7985C92.5887 24.7487 92.3264 24.7313 92.239 24.6963ZM93.393 18.9271C92.3963 18.9271 91.9243 19.3292 91.9243 20.3781C91.9243 21.4271 92.4663 21.8292 93.393 21.8292C94.3197 21.8292 94.8792 21.3746 94.8792 20.3781C94.8792 19.3641 94.3546 18.9271 93.393 18.9271Z" fill="#0E031E"/>
<path d="M43.0365 35.675V39.1365H41.8301V29.8184H44.6101C46.7608 29.8184 47.5476 31.0421 47.5476 32.7379C47.5476 34.4337 46.7608 35.6575 44.6101 35.6575H43.0365V35.675ZM43.0365 34.696H44.5752C45.9739 34.696 46.3586 33.8918 46.3586 32.7554C46.3586 31.6016 45.9739 30.8149 44.5752 30.8149H43.0365V34.696Z" fill="#0E031E"/>
<path d="M53.4754 39.1371H52.4788L52.4088 38.5601C52.0242 38.8748 51.0625 39.2769 50.2058 39.2769C48.7196 39.2769 48.1426 38.4028 48.1426 37.1091C48.1426 35.7455 48.8245 35.0287 50.2932 35.0287C51.1499 35.0287 51.9367 35.2559 52.3039 35.4133V34.3468C52.3039 33.4552 52.0242 33.0706 50.9926 33.0706C50.3806 33.0706 49.7687 33.158 49.1392 33.3329L48.9644 32.3713C49.5588 32.179 50.3981 32.0566 51.115 32.0566C52.7236 32.0566 53.4754 32.7559 53.4754 34.2769V39.1371ZM52.3039 36.2175C51.9193 36.0951 51.1499 35.9203 50.4506 35.9203C49.5064 35.9203 49.2791 36.3748 49.2791 37.144C49.2791 38.0007 49.5588 38.4028 50.3631 38.4028C51.2024 38.4028 51.9018 38.0881 52.2864 37.8084V36.2175H52.3039Z" fill="#0E031E"/>
<path d="M58.7732 33.1913C57.9864 33.3487 57.1995 33.6109 56.6051 33.9256V39.1529H55.4336V32.2123H56.3953L56.5176 33.0165C56.9373 32.5969 57.7066 32.1948 58.6158 32.1074L58.7732 33.1913Z" fill="#0E031E"/>
<path d="M63.5648 39.0656C63.2676 39.1705 62.5857 39.2754 62.1311 39.2754C60.9421 39.2754 60.435 38.611 60.435 37.5446V33.1565H59.2461V32.2124H60.4525V30.5166L61.624 30.3418V32.1949H63.5998L63.4949 33.139H61.624V37.4747C61.624 38.1215 61.7814 38.3138 62.4283 38.3138C62.7081 38.3138 63.1102 38.2614 63.4774 38.174L63.5648 39.0656Z" fill="#0E031E"/>
<path d="M69.0895 39.1371V34.0846C69.0895 33.4552 68.8273 33.1406 68.1454 33.1406C67.411 33.1406 66.6942 33.3853 66.1871 33.5951V39.1371H65.0156V32.1965H65.9598L66.0647 32.8084C66.6242 32.4238 67.4984 32.0566 68.4426 32.0566C69.6316 32.0566 70.2785 32.721 70.2785 33.9622V39.1371H69.0895Z" fill="#0E031E"/>
<path d="M73.0055 36.2001C73.0754 37.6686 73.4426 38.3679 74.8588 38.3679C75.5932 38.3679 76.3625 38.1931 76.9045 37.9833L77.0794 38.8749C76.5024 39.1197 75.5932 39.2945 74.8413 39.2945C72.341 39.2945 71.834 37.5812 71.834 35.6407C71.834 33.6476 72.4984 32.0742 74.614 32.0742C76.5024 32.0742 77.2892 33.4029 77.2892 35.0637V36.2001H73.0055ZM73.0055 35.2735H76.1527V35.0288C76.1527 33.7351 75.7505 32.9658 74.5966 32.9658C73.2852 32.9483 73.0055 33.8924 73.0055 35.2735Z" fill="#0E031E"/>
<path d="M82.2732 33.1913C81.4864 33.3487 80.6995 33.6109 80.1051 33.9256V39.1529H78.9336V32.2123H79.8953L80.0176 33.0165C80.4373 32.5969 81.2066 32.1948 82.1158 32.1074L82.2732 33.1913Z" fill="#0E031E"/>
<path d="M33.7709 14.3809H10.9534C10.1666 14.3809 9.53711 15.0102 9.53711 15.7969V38.6116C9.53711 39.3983 10.1666 40.0277 10.9534 40.0277H23.2276V30.0976H19.888V26.234H23.2276V23.3844C23.2276 20.0802 25.2558 18.262 28.2107 18.262C29.627 18.262 30.8509 18.3669 31.2006 18.4193V21.8809H29.1549C27.5463 21.8809 27.2316 22.6501 27.2316 23.769V26.234H31.0607L30.5537 30.0976H27.2141V40.0277H33.7534C34.5402 40.0277 35.1696 39.3983 35.1696 38.6116V15.7969C35.1696 15.0102 34.5402 14.3809 33.7709 14.3809Z" fill="#0E031E"/>
</svg>
